_site/images/features-page/icon-escrow.svg

<svg fill="none" height="40" viewBox="0 0 40 40" width="40" xmlns="http://www.w3.org/2000/svg"><path d="m32.5 40h-25c-4.1425 0-7.5-3.3575-7.5-7.5v-25c0-4.1425 3.3575-7.5 7.5-7.5h25c4.1425 0 7.5 3.3575 7.5 7.5v25c0 4.1425-3.3575 7.5-7.5 7.5z" fill="#ffc634"/><path clip-rule="evenodd" d="m27.8816 14.7339c-1.4446-3.247-4.927-5.15185-8.5116-4.6558-3.5847.496-6.3902 3.2709-6.8574 6.7824-1.9792.4716-3.40597 2.1599-3.5069 4.15-.10094 1.9902 1.1479 3.8084 3.0698 4.4692.1193.0359.2433.0549.3681.0563.6353.0994 1.2328-.3238 1.3344-.9452.1017-.6215-.3309-1.2058-.9663-1.3053-.8876-.3134-1.4896-1.1252-1.5185-2.0479 0-1.2429 1.0301-2.2504 2.3008-2.2504.6353 0 1.1504-.5038 1.1504-1.1252.006-2.7482 2.0409-5.0899 4.8128-5.5385s5.4696 1.1271 6.3803 3.7269c.134.394.4789.6837.8973.7539 1.4166.2508 2.5252 1.3353 2.7814 2.721.2562 1.3856-.3939 2.7813-1.631 3.5014-.5528.3107-.7433 1.0009-.4257 1.5416.3177.5406 1.0233.727 1.5761.4163 1.7751-1.0078 2.8667-2.8646 2.8644-4.8722-.0072-2.4859-1.6815-4.6725-4.1184-5.3785zm-4.1764 4.996c-.8821.1877-1.8041-.0049-2.5308-.5288-.4043-.289-.9532-.289-1.3574 0-.7261.5252-1.6488.718-2.5309.5288-.3403-.0718-.6956.0109-.9663.2251-.2672.212-.4234.5299-.4256.8664v3.792c-.0018 1.6358.782 3.1775 2.1167 4.1633l1.8061 1.294c.4042.2889.9531.2889 1.3574 0l1.8061-1.3053c1.3357-.9799 2.1203-2.5189 2.1167-4.152v-3.792c-.0023-.3365-.1585-.6544-.4257-.8664-.2707-.2142-.626-.2969-.9663-.2251zm-2.0586 7.1336c.7079-.5444 1.1299-1.3699 1.1504-2.2504v-2.5655c-.8046-.0354-1.5908-.2469-2.3008-.6189-.7099.372-1.4961.5835-2.3007.6189v2.5655c.0205.8805.4425 1.706 1.1504 2.2504l1.1503.8102z" fill="#fff" fill-rule="evenodd"/></svg>

<svg width="40" height="40" viewBox="0 0 40 40" fill="none" xmlns="http://www.w3.org/2000/svg">
<path d="M32.5 40H7.5C3.3575 40 0 36.6425 0 32.5V7.5C0 3.3575 3.3575 0 7.5 0H32.5C36.6425 0 40 3.3575 40 7.5V32.5C40 36.6425 36.6425 40 32.5 40Z" fill="#FFC634"/>
<path fill-rule="evenodd" clip-rule="evenodd" d="M27.8816 14.7339C26.437 11.4869 22.9546 9.58205 19.37 10.0781C15.7853 10.5741 12.9798 13.349 12.5126 16.8605C10.5334 17.3321 9.10663 19.0204 9.0057 21.0105C8.90476 23.0007 10.1536 24.8189 12.0755 25.4797C12.1948 25.5156 12.3188 25.5346 12.4436 25.536C13.0789 25.6354 13.6764 25.2122 13.778 24.5908C13.8797 23.9693 13.4471 23.385 12.8117 23.2855C11.9241 22.9721 11.3221 22.1603 11.2932 21.2376C11.2932 19.9947 12.3233 18.9872 13.594 18.9872C14.2293 18.9872 14.7444 18.4834 14.7444 17.862C14.7504 15.1138 16.7853 12.7721 19.5572 12.3235C22.3291 11.8749 25.0268 13.4506 25.9375 16.0504C26.0715 16.4444 26.4164 16.7341 26.8348 16.8043C28.2514 17.0551 29.36 18.1396 29.6162 19.5253C29.8724 20.9109 29.2223 22.3066 27.9852 23.0267C27.4324 23.3374 27.2419 24.0276 27.5595 24.5683C27.8772 25.1089 28.5828 25.2953 29.1356 24.9846C30.9107 23.9768 32.0023 22.12 32 20.1124C31.9928 17.6265 30.3185 15.4399 27.8816 14.7339ZM23.7052 19.7299C22.8231 19.9176 21.9011 19.725 21.1744 19.2011C20.7701 18.9121 20.2212 18.9121 19.817 19.2011C19.0909 19.7263 18.1682 19.9191 17.2861 19.7299C16.9458 19.6581 16.5905 19.7408 16.3198 19.955C16.0526 20.167 15.8964 20.4849 15.8942 20.8214V24.6134C15.8924 26.2492 16.6762 27.7909 18.0109 28.7767L19.817 30.0707C20.2212 30.3596 20.7701 30.3596 21.1744 30.0707L22.9805 28.7654C24.3162 27.7855 25.1008 26.2465 25.0972 24.6134V20.8214C25.0949 20.4849 24.9387 20.167 24.6715 19.955C24.4008 19.7408 24.0455 19.6581 23.7052 19.7299ZM21.6466 26.8635C22.3545 26.3191 22.7765 25.4936 22.797 24.6131V22.0476C21.9924 22.0122 21.2062 21.8007 20.4962 21.4287C19.7863 21.8007 19.0001 22.0122 18.1955 22.0476V24.6131C18.216 25.4936 18.638 26.3191 19.3459 26.8635L20.4962 27.6737L21.6466 26.8635Z" fill="white"/>
</svg>
